packages/foundations/assets/icons/functional/images/maps/navigation_to_left_14.svg

<svg width="14" height="14" viewBox="0 0 14 14" fill="none" xmlns="http://www.w3.org/2000/svg">
<g clip-path="url(#clip0_2213_5395)">
<path fill-rule="evenodd" clip-rule="evenodd" d="M6.9316 1.2923C6.74106 1.2923 6.55051 1.36368 6.43148 1.50644L3.62466 4.31044C3.48171 4.42946 3.41028 4.61985 3.41028 4.81025C3.41028 4.97682 3.48171 5.16722 3.62466 5.31005L6.50327 8.18585C6.62231 8.30479 6.81285 8.39999 7.0034 8.39999C7.40832 8.39999 7.71797 8.06683 7.71797 7.68605C7.71797 7.49565 7.64653 7.30526 7.50359 7.16243L5.8671 5.52748L8.43592 5.52819C8.83243 5.52819 9.15387 5.84963 9.15387 6.24614V11.9897C9.15387 12.3862 9.4753 12.7077 9.87182 12.7077C10.2683 12.7077 10.5898 12.3862 10.5898 11.9897V6.24614C10.5898 5.05661 9.62546 4.0923 8.43592 4.0923L5.86853 4.09158L7.4318 2.52986C7.57348 2.37726 7.64494 2.20272 7.64618 2.00624C7.64618 1.62545 7.33652 1.2923 6.9316 1.2923Z" fill="#1A1C1F"/>
</g>
<defs>
<clipPath id="clip0_2213_5395">
<rect width="14" height="14" fill="white"/>
</clipPath>
</defs>
</svg>

<svg xmlns="http://www.w3.org/2000/svg" width="14" height="14" fill="none"><g clip-path="url(#a)"><path fill="#1A1C1F" fill-rule="evenodd" d="M6.932 1.292a.65.65 0 0 0-.5.214L3.624 4.31a.65.65 0 0 0-.215.5c0 .167.072.357.215.5l2.878 2.876c.12.119.31.214.5.214a.716.716 0 0 0 .715-.714c0-.19-.071-.38-.214-.524L5.867 5.527l2.569.001c.396 0 .718.322.718.718v5.744a.718.718 0 1 0 1.436 0V6.246c0-1.19-.965-2.154-2.154-2.154H5.869L7.432 2.53a.76.76 0 0 0 .214-.524c0-.38-.31-.714-.714-.714" clip-rule="evenodd"/></g><defs><clipPath id="a"><path fill="#fff" d="M0 0h14v14H0z"/></clipPath></defs></svg>
